Leslie-updated-tokens/bal.svg

<svg width="200" height="200" viewBox="0 0 200 200" fill="none" xmlns="http://www.w3.org/2000/svg">
<rect width="200" height="200" fill="white"/>
<path d="M141.48 113.2C129 115.68 114.8 117 100 117C85.2001 117 71.0001 115.68 58.5201 113.2C25.0401 118.48 1.84009 129.96 1.84009 143.24C1.84009 161.56 45.8001 176.36 100 176.36C154.2 176.36 198.16 161.52 198.16 143.24C198.16 129.96 174.96 118.48 141.48 113.2Z" fill="black"/>
<path d="M99.9201 54.64C132.262 54.64 158.48 46.0439 158.48 35.44C158.48 24.8361 132.262 16.24 99.9201 16.24C67.5783 16.24 41.3601 24.8361 41.3601 35.44C41.3601 46.0439 67.5783 54.64 99.9201 54.64Z" fill="black"/>
<path d="M125.96 59.04C117.64 60.32 108.68 60.96 99.9199 60.96C91.1999 60.96 82.2799 60.32 73.9599 59.04C43.6399 62.6 21.8799 72.24 21.8799 83.52C21.8799 97.88 56.8399 109.48 99.9999 109.48C143.16 109.48 178.12 97.84 178.12 83.52C178.12 72.24 156.32 62.6 125.96 59.04Z" fill="black"/>
</svg>

<svg xmlns="http://www.w3.org/2000/svg" width="200" height="200" fill="currentColor" viewBox="0 0 200 200">
  <g clip-path="url(#a)">
    <path fill="#fff" d="M200 0H0v200h200V0Z"/>
    <path fill="#000" d="M141.48 113.2C129 115.68 114.8 117 100 117c-14.8 0-29-1.32-41.48-3.8-33.48 5.28-56.68 16.76-56.68 30.04 0 18.32 43.96 33.12 98.16 33.12 54.2 0 98.16-14.84 98.16-33.12 0-13.28-23.2-24.76-56.68-30.04ZM99.92 54.64c32.342 0 58.56-8.596 58.56-19.2s-26.218-19.2-58.56-19.2-58.56 8.596-58.56 19.2 26.218 19.2 58.56 19.2Zm26.04 4.4c-8.32 1.28-17.28 1.92-26.04 1.92-8.72 0-17.64-.64-25.96-1.92-30.32 3.56-52.08 13.2-52.08 24.48 0 14.36 34.96 25.96 78.12 25.96 43.16 0 78.12-11.64 78.12-25.96 0-11.28-21.8-20.92-52.16-24.48Z"/>
  </g>
  <defs>
    <clipPath id="a">
      <path fill="#fff" d="M0 0h200v200H0z"/>
    </clipPath>
  </defs>
</svg>
